X:=3
T:Baubles, Bangles & Beads
C:Wright & Forrest
L:1/8
M:3/4
I:linebreak $
K:Ab
"Bbm" F2 B4 |"Eb7" F2 B4 |"Ab" G2 c3 E |"Fm" A2 GA G_G |"Bbm" F2 B4 |$"Eb7" F2 B3 F |"Ab" c6 |
"Fm" z6 ||[K:C]"Dm" A2 d4 |"G7" A2 d4 |"Em" B2 e3 G |"Am" c2 Bc B_B |$"Dm" A2 d4 |"G7" A2 d3 A |
"C" e6 |"A7" ^c6 ||[K:E]"F#m" c6 |"B7" d2 c2 d2 |"E" B6 |"C#m" G6 |$"A" c6 ||
[K:Ab]"Bbm" e2 d2"Eb7" e2 |"Ab" c6 |"F7" z2 E2 =E2 ||"Bbm" F2 B4 |"Eb7" F2 B4 |"Cm" G2 c3 E |
"Fm" e2 de dc |$"Bbm" F2 c4 |"Eb7" F2 c3 F |"Cm" c6 |"F7" z2 d2 c2 |"Bbm" F2 c4 |"Eb7" F2 f3 G |
"Ab" A6 | z8 |]

